X:1
T:Moments To Remember
T:Moments To Remember
C:Robert Allen
Z:All Rights Reserved
L:1/4
M:4/4
K:G
V:1 treble nm="Voice"
%%MIDI program 52
V:1
 z2 z z/ E/ |"Gmaj7" D B,"G6" B,3/2 E/ |"Gmaj7" D B,"G6" B,3/2 D/ |"G" B B"G+" B3/2 A/ | %4
w: The|New Years Eve we|did the town, the|day we tore the|
"C" G E"Am" E2 |"Bm" z D/D/ ^C D |"D7" F E C3/2 E/ |"Gdim" E2"G" D2 | z2 z z/ E/ | %9
w: goal- posts down.|We will have these|mo- ments to re-|mem- ber.|The|
"Gmaj7" D B,"G6" B,3/2 E/ |"Gmaj7" D B,"G6" B,3/2 D/ |"G" B B"G+" B3/2 A/ |"C" G E"Am" E2 | %13
w: qui- et walks the|nois- y fun the|ball- room prize we|al- most won;|
"Bm" z D/D/ ^C D |"D" F D F A |"D7" A4 |"G" G3 G |"C" c E2 c |"G" B D2 G/B/ |"D7" A D F A | %20
w: We will have these|mo- ments to re-|mem-|ber. The|sum- mer turns|to win- ter, and|the pre- sent dis-|
"G7" B3 G |"C" c E G c |"G" B D"Em7" G3/2 B/ |"A7" A ^C E B |"Am7" A3"D7" E | %25
w: appears. The|laugh- ter we were|glad to share will|e- cho through the|years. When|
"Gmaj7" D B,"G6" B,3/2 E/ |"Gmaj7" D B,"G6" B,3/2 D/ |"G" B B"G+" B3/2 A/ |"C" G E"Am" E2 | %29
w: oth- er nights and|oth- er days may|find us gone our|sep'- rate ways.|
"Bm" z D/D/"D7" ^C D |"D7" F D F A |"Cm" A4 |"G" G3- G/ z/ |] %33
w: We will have these|mo- ments to re-|mem-|ber. *|

